ghost/admin/public/assets/icons/email-love-letter.svg

<svg version="1" xmlns="http://www.w3.org/2000/svg" width="24" height="24" viewBox="0 0 24 24"><g><path d="M23.991 11.464l-.036-.146-.028-.068-.011-.027-.115-.114-.018-.021-.008-.005h-.001l-3.774-2.596v-7.987c0-.276-.224-.5-.5-.5h-15c-.276 0-.5.224-.5.5v7.987l-3.774 2.595-.003.002-.006.004-.015.016-.118.118-.011.027-.028.068-.036.146-.009.037v10.5c0 1.103.897 2 2 2h20c1.103 0 2-.897 2-2v-10.5l-.009-.036zm-1.383.03l-2.608 1.738v-3.531l2.608 1.793zm-18.608 1.738l-2.608-1.739 2.608-1.792v3.531zm18 9.768h-20c-.551 0-1-.449-1-1v-9.566l5.223 3.482c.085.057.181.084.276.084.162 0 .32-.078.417-.223.153-.23.091-.54-.139-.693l-1.777-1.185v-12.899h14v12.899l-1.777 1.185c-.23.153-.292.463-.139.693.096.145.255.223.416.223.095 0 .191-.027.277-.084l5.223-3.482v9.566c0 .551-.449 1-1 1zM15.812 16.109c-.088-.07-.198-.109-.312-.109h-7c-.114 0-.224.039-.312.109l-5 4c-.215.173-.25.487-.078.703.173.215.487.251.703.078l4.862-3.89h6.649l4.863 3.891c.093.073.203.109.313.109.147 0 .292-.065.391-.188.172-.216.137-.53-.078-.703l-5.001-4zM11.706 12.779c.087.064.191.096.294.096s.207-.032.294-.096c.482-.35 4.706-3.497 4.706-6.101 0-1.868-1.387-2.984-2.728-2.984-.772 0-1.674.379-2.272 1.368-.598-.988-1.5-1.368-2.272-1.368-1.341-.001-2.728 1.116-2.728 2.984 0 2.604 4.224 5.751 4.706 6.101zm-1.978-8.086c.844 0 1.511.681 1.786 1.822.108.45.864.45.973 0 .274-1.141.942-1.822 1.786-1.822.85 0 1.728.742 1.728 1.984 0 1.646-2.658 4.037-4 5.072-1.342-1.035-4-3.426-4-5.072-.001-1.241.877-1.984 1.727-1.984z"/></g></svg>

<svg version="1" xmlns="http://www.w3.org/2000/svg" width="24" height="24" viewBox="0 0 24 24">
  <title>email-love-letter</title>
  <path d="m23.991 11.464-.036-.146-.028-.068-.011-.027-.115-.114-.018-.021-.008-.005h-.001L20 8.487V.5a.5.5 0 0 0-.5-.5h-15a.5.5 0 0 0-.5.5v7.987L.226 11.082l-.003.002-.006.004-.015.016-.118.118-.011.027-.028.068-.036.146L0 11.5V22c0 1.103.897 2 2 2h20c1.103 0 2-.897 2-2V11.5l-.009-.036zm-1.383.03L20 13.232V9.701l2.608 1.793zM4 13.232l-2.608-1.739L4 9.701v3.531zM22 23H2c-.551 0-1-.449-1-1v-9.566l5.223 3.482a.5.5 0 0 0 .554-.832L5 13.899V1h14v12.899l-1.777 1.185a.5.5 0 1 0 .554.832L23 12.434V22c0 .551-.449 1-1 1zm-6.188-6.891A.502.502 0 0 0 15.5 16h-7a.502.502 0 0 0-.312.109l-5 4a.501.501 0 0 0 .625.781L8.675 17h6.649l4.863 3.891a.505.505 0 0 0 .704-.079.501.501 0 0 0-.078-.703l-5.001-4zm-4.106-3.33a.497.497 0 0 0 .588 0C12.776 12.429 17 9.282 17 6.678c0-1.868-1.387-2.984-2.728-2.984-.772 0-1.674.379-2.272 1.368-.598-.988-1.5-1.368-2.272-1.368C8.387 3.693 7 4.81 7 6.678c0 2.604 4.224 5.751 4.706 6.101zM9.728 4.693c.844 0 1.511.681 1.786 1.822.108.45.864.45.973 0 .274-1.141.942-1.822 1.786-1.822.85 0 1.728.742 1.728 1.984 0 1.646-2.658 4.037-4 5.072-1.342-1.035-4-3.426-4-5.072C8 5.436 8.878 4.693 9.728 4.693z"/>
</svg>
